X:1
T:Die nacht ist kommen
T:Die nacht ist kommen
T:Adam Gumpelzhaimer
T:Source : Neüe Teütsche Geistliche Lieder mit 3 stimmen---Augsburg---V.Schonigk---1591. Editor : André Vierendeels (13/07/16)
T:Notes : Original clefs : G2, G2, C3 Editorial accidentals above the staff Text Middle German - original title: Die nacht is kummen See also the Latin version " Nox adest nostrae data" (A.Gumpelzhaimer)
T:©
T:©
C:Adam Gumpelzhaimer
Z:©
%%score [ 1 2 3 ]
L:1/8
Q:1/4=120
M:4/4
K:F
V:1 treble nm="Soprano 1" snm="S 1"
V:2 treble nm="Soprano 2" snm="S 2"
V:3 treble-8 nm="Tenor" snm="T"
V:1
 d4 d2 e2 | f4 f2 c2- | c2 d2 B2 c2 | A4 =B4 | d4 d2 e2 | f4 f2 c2- | c2 d2 B2 c2 | A4 =B4 |: %8
w: Die nacht ist|kom- men, drinn|_ wir ru- hen|sol- len,|Gott walts den|früm- men nach|_ sein wol- ge-|fal- len,|
w: Treib Herz von|uns ferz, die|_ un- rei- nen|Gai- ster,|halt die Nacht-|wach gern, sei|_ selbs un- ser|Schutz- herz,|
 z2 d2 d2 d2 | _e4 d2 d2- | d2 e2 f2 d2 | c4 d2 e2 | f3 e d4 | z2 d2 f3 e | d3 c B2 A2- | %15
w: das wir uns|le- gen inn|_ sein gleid und|se- gen, durch|sein, _ _|durch sein _|_ _ _ zu-|
w: schirrm beid Leib|und Seel un-|* ter dei- ne|Flä- * *|* * gel,|send uns _|_ _ _ dein|
 A2 G4 F2 | G2 d2 f3 e | d4 z2 d2 | f3 e d2 c2 | B2 AG A4 | !fermata!=B8 :| %21
w: * pfle- *|gen, durch sein, _|_ durch|sein _ _ zu-|pfle- * * *|gen.|
w: _ _ En-|gel, send uns, _|_ send|uns _ _ dein|En- * * *|gel.|
V:2
 F4 F2 G2 | A4 B2 A2- | A2 A2 G2 G2 | ^F4 G4 | F4 F2 G2 | A4 B2 A2- | A2 A2 G2 G2 | ^F4 G4 |: %8
w: Die nacht ist|kom- men, drinn|_ wir ru- hen|sol- len,|Gott walts den|früm- men nach|_ sein wol- ge-|fal- len,|
w: Treib Herz von|uns ferz, die|_ un- rei- nen|Gai- ster,|halt die Nacht-|wach gern, sei|_ selbs un- ser|Schutz- ferz,|
 z2 B2 A2 B2 | c4 B2 B2- | B2 G2 F2 B2 | A4 B4 | z2 d2 f3 e | d4 z2 d2 | f3 e d2 c2 | B2 AG A4 | %16
w: das wir uns|le- gen inn|_ sein gleid und|se- gen,|durch sein, _|_ durch|sein, _ _ zu-|pfle- * * *|
w: schirmm beid Leib|und Seel un-|* ter dei- ne|Flä- gel,|send uns, _|_ send|uns _ _ dein|En- * * *|
 =B3 c d4 | z2 d2 f3 e | d3 c B2 A2- |"^#" A2 G4 F2 | !fermata!G8 :| %21
w: gen, _ _|durch sein _|_ _ _ zu-|* pfle- *|gen.|
w: gel, _ _|send uns _|_ _ _ dein|_ En- *|gel.|
V:3
 B4 B2 G2 | d4 d2 f2- | f2 d2 g2 c2 | d4 G4 |"^b" B4 B2 G2 | d4 d2 f2- | f2 d2 g2 c2 | d4 G4 |: %8
w: Die nacht ist|kom- men, drinn|_ wir ru- hen|sol- len,|Gott walts den|früm- men nach|_ sein wol- ge-|fal- len,|
w: Treib Herz von|uns ferz, die|_ un- rei- nen|Gai- ster,|halt die Nacht-|wacht gern, sei|_ selbs un- ser|Schutz- herz,|
 z2 g2 ^f2 g2 | c4 G2 B2- | B2 c2 d2 B2 |"^#" f4 B4- | B4 z2 d2 | f3 e d3 c | B6 c2 | d8 | %16
w: das wir uns|le- gen inn|_ sein gleid und|se- gen,|_ durch|sein _ _ _|_ zu-|pfle-|
w: schimm beid Leib|und Seel un-|* ter dei- ne|Flä- *|gel, send|uns _ _ _|_ dein|En-|
 G4 z2 d2 | f3 e d3 c | B6 c2 | d8 | !fermata!G8 :| %21
w: gen, durch|sein _ _ _|_ zu-|pfle-|gen.|
w: gel, send|uns _ _ _|_ dein|En-|gel.|

